X:1
T:Title
%%score { ( 1 3 ) | ( 2 4 5 ) }
L:1/8
M:3/4
K:Eb
V:1 treble nm="Grand Piano"
V:3 treble 
V:2 bass 
V:4 bass 
V:5 bass 
V:1
 z2 z2[Q:1/4=100] E>F | G3- G/G/ (3ABc | B2 G2 E>F | G3- G/G/ (3BAG |[M:2/4] [DF]4 |[M:1/4] E>F | %6
[M:3/4] G3- G/G/ (3ABc | B2 G2 B>c | [DB]3- [DB]/[DF]/ [DA]>D |[M:2/4] E4 |[M:4/4] z2 [Ge]6 | %11
[M:3/4] z2 [GB]4 |[M:1/4] [EG]->[B,EG] | [EGB]>[EGB] | %14
[M:4/4] [Ac]->[EA-c-] [EA-c-]>[EA-c-] [Ac]>B [B,FA]>[B,EG] |[M:3/4] [DF]4- [DF]->[A,DF] | %16
[M:1/4] (3Bcd |[M:4/4] [Ge]6 z z/ B,/ |[M:3/4] E2 z2 [EG]2 |[M:1/4] [EGB]>[EGB] | %20
[M:4/4] [Ac]->[EA-c-] [EA-c-]>[EAc-] [=Ac]>c d>d |[M:3/4] e->[Ge-] [Ae-]>[Ae-] [Ge]2 |] %22
V:2
 z2 z2 [E,G,B,]>[E,A,B,] | [E,B,E]3- [E,B,E]/[E,B,E]/ (3:2:2[E,CE]2 [E,A,E] | %2
 [E,G,E]2 [E,B,E]2 [E,G,B,]>[E,A,B,] | [E,B,E]3- [E,B,E]/[E,B,E]/ (3:2:2[D,B,]2 [E,B,E] | %4
[M:2/4] [B,,B,]4 |[M:1/4] [E,G,B,]>[E,A,B,] | %6
[M:3/4] [E,B,E]3- [E,B,E]/[E,B,E]/ (3:2:2[E,CE]2 [E,A,E] | [E,G,E]2 [E,B,E]2 [E,G,E]>[E,G,E] | %8
 [B,,F,]3- [B,,F,]/[B,,B,]/ [B,,B,]>[B,,A,B,] |[M:2/4] [E,G,B,]4 | %10
[M:4/4][K:treble] (3[B,-D][B,E][B,F][K:bass] [E,B,]>E, E,>E, E,>E, | %11
[M:3/4] B,>[K:treble]E[K:bass] z2 z2 |[M:1/4] E,>E, | E,>E, |[M:4/4] A,>A, A,>A, z z/ G/ D,>E, | %15
[M:3/4] B,,>B, B,>B, B,2 |[M:1/4][K:treble] (3DEF[K:bass] | %17
[M:4/4] [E,B,]>E, E,>E, E,>E, (3z[K:treble] BA[K:bass] |[M:3/4] E,>E, E,>E, E,>E, |[M:1/4] E,>E, | %20
[M:4/4] A,>A, A,>A,[K:treble] z z/ =A/ [B,F]>[B,_A] | %21
[M:3/4][K:bass] [E,B,]>[E,B,] [E,C]>[E,C] [E,B,]2 |] %22
V:3
 x6 | x6 | x6 | z2 z2 F2 |[M:2/4] x4 |[M:1/4] x2 |[M:3/4] x6 | x6 | x6 |[M:2/4] x4 | %10
[M:4/4] (3Bcd z z/ B,/ B,>B, B,>[B,GB] |[M:3/4] (3[Ge]dc E>E E>F |[M:1/4] B,3/2 z/ | x2 | %14
[M:4/4] E2 z2 E2 z2 |[M:3/4] B,2 z2 z2 |[M:1/4] z z/ B,/ | %17
[M:4/4] z z/ B,/ B,>B, B,>[B,GB] (3[Ge]dc |[M:3/4] [GB]->[EG-B-] [EG-B-]>[EGB] B,>B, |[M:1/4] x2 | %20
[M:4/4] E2 z2 z4 |[M:3/4] G2 z2 z2 |] %22
V:4
 x6 | x6 | x6 | x6 |[M:2/4] x4 |[M:1/4] x2 |[M:3/4] x6 | x6 | x6 |[M:2/4] x4 | %10
[M:4/4][K:treble] x2[K:bass] x6 |[M:3/4] (3z[K:treble] BA[K:bass] E,>E, E,>E, |[M:1/4] x2 | x2 | %14
[M:4/4] z4 A,2 z2 |[M:3/4] x6 |[M:1/4][K:treble] [G,B,]>[K:bass]F, | %17
[M:4/4] z4 z2 B,>[K:treble][K:bass]E, |[M:3/4] x6 |[M:1/4] x2 |[M:4/4] z4[K:treble] [F,F]2 z2 | %21
[M:3/4][K:bass] x6 |] %22
V:5
 x6 | x6 | x6 | x6 |[M:2/4] x4 |[M:1/4] x2 |[M:3/4] x6 | x6 | x6 |[M:2/4] x4 | %10
[M:4/4][K:treble] x2[K:bass] x6 |[M:3/4] E,2[K:treble][K:bass] z2 z2 |[M:1/4] x2 | x2 |[M:4/4] x8 | %15
[M:3/4] x6 |[M:1/4][K:treble] x3/2[K:bass] x/ |[M:4/4] z4 z2 E,2[K:treble][K:bass] |[M:3/4] x6 | %19
[M:1/4] x2 |[M:4/4] x4[K:treble] x4 |[M:3/4][K:bass] x6 |] %22

